X:14269
T:Ridee 6 temps
R:ridee
C:trad.
A:Bretagne
O:France
M:2/4
L:1/8
Q:1/8=300
K:G
|:D|GA Bc|dB d2|cB AD|GA Bc|dB d2|cB A:|
|:d|de d2|G2 Ac|BA Gd|de d2|G2 Ac|BA G:||
